X: 28530
T: Munster Lass, The
R: jig
M: 6/8
K: Fmajor
FAc fef|gfe f3|FAc fed|cBA G2A|
FAc fef|gfe fga|gfe fed|cBA G3:|
|:b|agf gfe|fcA F2b|agf gBA|BAB G2b|
agf gfe|fed cBA|Bdg Acf|ede f3:|

